src/assets/icons/ch.svg

<svg height="48" viewBox="0 0 35 48" width="35" xmlns="http://www.w3.org/2000/svg"><path d="m32.5491301 6.2672973c2.0833291 4.5119347 2.3706444 10.3482374 2.3706444 15.9809792 0 5.7829088-2.8778439 11.9728809-8.3198303 17.9013566-4.0253461 4.3851925-8.006129 7.0861405-8.1744137 7.1998632l-.9651448.6505037-.9657313-.6505037c-.1682847-.1137227-4.1502402-2.8146707-8.17558632-7.1998632-5.44339369-5.9284757-8.31906808-12.1184478-8.31906808-17.9013566 0-5.2858849.29476205-11.3223713 2.47829974-15.99256633l.48327607-1.03463159 1.14679852.04658142c.20112071.0091416.40839818.01368329.61456157.01368329 1.02724017 0 2.08819592-.10236267 3.15284571-.30365264 4.44869639-.83817444 7.65255519-3.25021865 7.85367589-4.97769065l3.4255021.01251876c.1776664 1.59209474 3.2091361 3.91435326 7.7926947 4.88895304 1.1844427.25247131 2.3595037.37987149 3.4952787.37987149.1630074 0 .3254285-.00116453.4843315-.00908338l1.1445703-.03755627zm-7.2772863 32.6768669c5.134735-5.592973 7.8489851-11.3656339 7.8489851-16.6958877 0-5.3256538-.2550656-10.8294816-2.1032653-15.00859204l-.0779856-.17631068-.496645.00454169c-1.2565647 0-2.560038-.14096703-3.8723067-.41964038-3.9033837-.82903284-7.1770191-2.63837169-8.5414736-4.72178397l-.086781-.13194187-1.0009127-.00343538-.0873673.13421272c-1.4183994 2.19602286-4.8110654 4.08385141-8.64232709 4.80825073-1.33396392.24996755-2.67684047.35687191-3.93205654.32869015l-.19537441-.00454169-.07945148.17741699c-1.94348282 4.33445943-2.20570201 10.02065353-2.20570201 15.01313373 0 5.3302538 2.71419147 11.104021 7.84916097 16.6958877 3.36276176 3.6630348 6.69972386 6.1126528 7.64258716 6.7768048l.1694574.1194115.1694574-.1194115c.9452087-.6664229 4.289207-3.1240063 7.6420007-6.7768048zm5.2854289-31.29508728c1.7350327 4.06038598 1.9771984 9.41224198 1.9771984 14.59919958 0 5.182416-2.6608915 10.8197578-7.6959457 16.3034974-3.1364277 3.417446-6.2617145 5.7737963-7.3781397 6.573279-1.1146661-.7972061-4.2340895-3.1467497-7.3787262-6.573279-5.03464366-5.4826332-7.69612156-11.1199168-7.69612156-16.3034974 0-4.8628092.24849842-10.3864341 2.07740693-14.60036411 1.25287064.01595413 2.55270854-.09665645 3.85846865-.34231522 3.90514268-.73942183 7.38752148-2.66568005 8.93726508-4.93105101l.3676463.00110631c1.5104576 2.18239781 4.7917157 3.98608866 8.8217526 4.84242986 1.3527274.28653396 2.6966594.43146041 3.9948555.43146041zm-10.9085999 32.55511468c3.1634002-2.8362845 5.3141605-6.5846332 5.63138-11.5577822-.1055444-4.5136815-1.99303-7.834471-5.0837218-10.3671028 6.1766927-4.0224222 2.5799742-11.1260889-2.6163284-11.1260889-5.4197048 0-8.58310494 7.6233989-2.5811468 11.1772702-3.086001 2.5690236-4.8738058 5.7737671-4.9793502 10.2863423.3183923 4.9732072 2.3166995 8.8090708 5.4554727 11.6282948l2.0927108-2.6907175zm-2.2856225-20.5726846c-.5417946-1.0621729-1.4594445-2.0140642-2.1988416-2.9943702-.1764937-.238788-.3002152-.9814123.2515474-.7823932.3653009.1341545.7939284.23314 1.1932381.0875731.3060787-.1114461.7880648-.0819251.7880648.3206548v2.4280566c0 .2467651.0357679.7426243-.0340087.9404789zm-.4180731-5.8784007-.6643434-.1274001.0240407.7812868-.5529354-.6243075-.3887552.6948202-.0949899-.7426243-.7798559.2229503.5165812-.6659979-.6403026-.3962332.7171155-.1050411-.2345431-.7062326.6397163.4030458.2409931-.7187514.288488.6891722.6643433-.4264529-.3119423.6827671.7640242.1166865-.6872113.368459zm3.7444807 0-.663757-.1274001.0228679.7812868-.552349-.6243075-.3881688.6948202-.0938173-.7426243-.7822012.2229503.5177539-.6659979-.6414754-.3962332.7171155-.1050411-.2351294-.7062326.6414754.4030458.2404067-.7187514.288488.6891722.6643433-.4264529-.3113559.6827671.7640241.1166865-.6872113.368459zm-.7106656 2.8430971c-.742329.980306-1.6588061 1.9321973-2.1988417 2.9943702-.0715356-.1979128-.0357678-.6948784-.0357678-.9393726v-2.4279984c0-.4037444.4819861-.4321591.7880649-.3218776.3993096.1467315.8291098.0466397 1.193238-.0864085.5529354-.1990191.4292139.5413343.2533066.7812869zm1.1985152 12.8826742c-.3113559.5549594-.8701549.8586121-1.2342831 1.255544-.6766568.7243993-.9346542 1.1792669-1.0114671 1.8036326-.8103464-1.4590465-2.4333847-5.7498941 2.1226151-10.7002764-.7001112 1.3430588-1.240733 2.5394444-1.3345503 3.7312883-.0527722.705068.1418986 1.2714398.4995769 1.9139723.4942996.5481469 1.1281523 1.2145523.9581085 1.9958392zm-4.9553094 3.1467497c-.1530394-.6015991-.4122095-1.2259648-1.0765529-1.8855577-.440941-.4435133-1.1574702-.8165141-1.3327912-1.3078316-.1119943-.5606656.5576262-1.1553939 1.0102944-1.8332118.3934461-.5890803.6397164-1.2771462.5576263-2.0777643-.1407259-1.2782524-.6115712-2.2881377-1.3814589-3.5549776 4.5618634 3.7710571 3.1334959 9.2468779 2.2228823 10.659343zm6.3010005-.6538867c-.0580494.752814.0187635 1.727472-.6344391 1.6933511-.2873153-.0114124-.5758033-.3559985-1.1750609-.3741653-.3465375.0125188-.7294291.0818669-1.0759665.1990192-.5353447.1865003-.1184443-1.5648446.7704741-2.2540168.1583166-.1159877.6514434-.4139923 1.2090697-1.2430252.2544792-.3730007.3418466-.3672945.4778816.1285065.2761745.7005264.3160468 1.0508186.4280411 1.8503305zm-7.0656111 1.6228385c-.345951-.116046-.7288427-.1876649-1.0753801-.1979128-.5992576.0170604-.8877457.3616465-1.1762337.3730007-.6520298.0352854-.575217-.9393144-.6344391-1.6921866.1119943-.8006181.1530394-1.1509104.4292139-1.8514368.1354486-.4958592.2234023-.5015072.4755361-.1273419.558799.8278683 1.0525122 1.1258729 1.2114152 1.242967.8877456.6880658 1.3058187 2.4394108.7698877 2.2529104zm5.678875 1.8559785c-.3582646-.3139006-.8232463-.6471324-1.1222888-.9860122-.1888072-.2103734.0826765-.5083198.3629555-.5253803.3952051-.0284728.7411562.0170605 1.1820973.1398608.8003783.2217858-.1465895.7823932-.422764 1.3715317zm-6.0547303-1.004179c-.4761225.4730926-.7581606.9291247-1.0396123 1.0394062-.2533066-.5424407-1.2712237-1.2430252-.4778816-1.3010191.4890224-.0352272.6895567-.2046671 1.0237807-.2399526.399896-.0466396.840837.1580857.4937132.5015655z" fill="#fff"/></svg>

<svg width="35px" height="48px" viewBox="0 0 35 48" version="1.1" xmlns="http://www.w3.org/2000/svg" xmlns:xlink="http://www.w3.org/1999/xlink">
    <!-- Generator: Sketch 50.2 (55047) - http://www.bohemiancoding.com/sketch -->
    <desc>Created with Sketch.</desc>
    <defs></defs>
    <g id="Symbols" stroke="none" stroke-width="1" fill="none" fill-rule="evenodd">
        <g id="icon/CH" fill="#FFFFFF" fill-rule="nonzero">
            <path d="M32.5491301,6.2672973 C34.6324592,10.779232 34.9197745,16.6155347 34.9197745,22.2482765 C34.9197745,28.0311853 32.0419306,34.2211574 26.5999442,40.1496331 C22.5745981,44.5348256 18.5938152,47.2357736 18.4255305,47.3494963 L17.4603857,48 L16.4946544,47.3494963 C16.3263697,47.2357736 12.3444142,44.5348256 8.31906808,40.1496331 C2.87567439,34.2211574 4.93677816e-16,28.0311853 -2.14524252e-16,22.2482765 C-8.61858464e-16,16.9623916 0.294762049,10.9259052 2.47829974,6.25571017 L2.96157581,5.22107858 L4.10837433,5.26766 C4.30949504,5.2768016 4.51677251,5.28134329 4.7229359,5.28134329 C5.75017607,5.28134329 6.81113182,5.17898062 7.87578161,4.97769065 C12.324478,4.13951621 15.5283368,1.727472 15.7294575,0 L19.1549596,0.0125187569 C19.332626,1.6046135 22.3640957,3.92687202 26.9476543,4.9014718 C28.132097,5.15394311 29.307158,5.28134329 30.442933,5.28134329 C30.6059404,5.28134329 30.7683615,5.28017876 30.9272645,5.27225991 L32.0718348,5.23470364 L32.5491301,6.2672973 Z M25.2718438,38.9441642 C30.4065788,33.3511912 33.1208289,27.5785303 33.1208289,22.2482765 C33.1208289,16.9226227 32.8657633,11.4187949 31.0175636,7.23968446 L30.939578,7.06337378 L30.442933,7.06791547 C29.1863683,7.06791547 27.882895,6.92694844 26.5706263,6.64827509 C22.6672426,5.81924225 19.3936072,4.0099034 18.0291527,1.92649112 L17.9423717,1.79454925 L16.941459,1.79111387 L16.8540917,1.92532659 C15.4356923,4.12134945 12.0430263,6.009178 8.21176461,6.73357732 C6.87780069,6.98354487 5.53492414,7.09044923 4.27970807,7.06226747 L4.08433366,7.05772578 L4.00488218,7.23514277 C2.06139936,11.5696022 1.79918017,17.2557963 1.79918017,22.2482765 C1.79918017,27.5785303 4.51337164,33.3522975 9.64834114,38.9441642 C13.0111029,42.607199 16.348065,45.056817 17.2909283,45.720969 L17.4603857,45.8403805 L17.6298431,45.720969 C18.5750518,45.0545461 21.9190501,42.5969627 25.2718438,38.9441642 Z M30.5572727,7.64907692 C32.2923054,11.7094629 32.5344711,17.0613189 32.5344711,22.2482765 C32.5344711,27.4306925 29.8735796,33.0680343 24.8385254,38.5517739 C21.7020977,41.9692199 18.5768109,44.3255702 17.4603857,45.1250529 C16.3457196,44.3278468 13.2262962,41.9783032 10.0816595,38.5517739 C5.04701584,33.0691407 2.38553794,27.4318571 2.38553794,22.2482765 C2.38553794,17.3854673 2.63403636,11.8618424 4.46294487,7.64791239 C5.71581551,7.66386652 7.01565341,7.55125594 8.32141352,7.30559717 C12.2265562,6.56617534 15.708935,4.63991712 17.2586786,2.37454616 L17.6263249,2.37565247 C19.1367825,4.55805028 22.4180406,6.36174113 26.4480775,7.21808233 C27.8008049,7.50461629 29.1447369,7.64954274 30.442933,7.64954274 L30.5572727,7.64907692 Z M19.6486728,40.2041916 C22.812073,37.3679071 24.9628333,33.6195584 25.2800528,28.6464094 C25.1745084,24.1327279 23.2870228,20.8119384 20.196331,18.2793066 C26.3730237,14.2568844 22.7763052,7.1532177 17.5800026,7.1532177 C12.1602978,7.1532177 8.99689766,14.7766166 14.9988558,18.3304879 C11.9128548,20.8995115 10.12505,24.104255 10.0195056,28.6168302 C10.3378979,33.5900374 12.3362051,37.425901 15.4749783,40.245125 L17.5676891,37.5544075 L19.6486728,40.2041916 Z M17.3630503,19.631507 C16.8212557,18.5693341 15.9036058,17.6174428 15.1642087,16.6371368 C14.987715,16.3983488 14.8639935,15.6557245 15.4157561,15.8547436 C15.781057,15.9888981 16.2096845,16.0878836 16.6089942,15.9423167 C16.9150729,15.8308706 17.397059,15.8603916 17.397059,16.2629715 L17.397059,18.6910281 C17.397059,18.9377932 17.4328269,19.4336524 17.3630503,19.631507 Z M16.9449772,13.7531063 L16.2806338,13.6257062 L16.3046745,14.406993 L15.7517391,13.7826855 L15.3629839,14.4775057 L15.267994,13.7348814 L14.4881381,13.9578317 L15.0047193,13.2918338 L14.3644167,12.8956006 L15.0815322,12.7905595 L14.8469891,12.0843269 L15.4867054,12.4873727 L15.7276985,11.7686213 L16.0161865,12.4577935 L16.6805298,12.0313406 L16.3685875,12.7141077 L17.1326117,12.8307942 L16.4454004,13.1992532 L16.9449772,13.7531063 Z M20.6894579,13.7531063 L20.0257009,13.6257062 L20.0485688,14.406993 L19.4962198,13.7826855 L19.108051,14.4775057 L19.0142337,13.7348814 L18.2320325,13.9578317 L18.7497864,13.2918338 L18.108311,12.8956006 L18.8254265,12.7905595 L18.5902971,12.0843269 L19.2317725,12.4873727 L19.4721792,11.7686213 L19.7606672,12.4577935 L20.4250105,12.0313406 L20.1136546,12.7141077 L20.8776787,12.8307942 L20.1904674,13.1992532 L20.6894579,13.7531063 Z M19.9787923,16.5962034 C19.2364633,17.5765094 18.3199862,18.5284007 17.7799506,19.5905736 C17.708415,19.3926608 17.7441828,18.8956952 17.7441828,18.651201 L17.7441828,16.2232026 C17.7441828,15.8194582 18.2261689,15.7910435 18.5322477,15.901325 C18.9315573,16.0480565 19.3613575,15.9479647 19.7254857,15.8149165 C20.2784211,15.6158974 20.1546996,16.3562508 19.9787923,16.5962034 Z M21.1773075,29.4788776 C20.8659516,30.033837 20.3071526,30.3374897 19.9430244,30.7344216 C19.2663676,31.4588209 19.0083702,31.9136885 18.9315573,32.5380542 C18.1212109,31.0790077 16.4981726,26.7881601 21.0541724,21.8377778 C20.3540612,23.1808366 19.8134394,24.3772222 19.7196221,25.5690661 C19.6668499,26.2741341 19.8615207,26.8405059 20.219199,27.4830384 C20.7134986,28.0311853 21.3473513,28.6975907 21.1773075,29.4788776 Z M16.2219981,32.6256273 C16.0689587,32.0240282 15.8097886,31.3996625 15.1454452,30.7400696 C14.7045042,30.2965563 13.987975,29.9235555 13.812654,29.432238 C13.7006597,28.8715724 14.3702802,28.2768441 14.8229484,27.5990262 C15.2163945,27.0099459 15.4626648,26.32188 15.3805747,25.5212619 C15.2398488,24.2430095 14.7690035,23.2331242 13.9991158,21.9662843 C18.5609792,25.7373414 17.1326117,31.2131622 16.2219981,32.6256273 Z M22.5229986,31.9717406 C22.4649492,32.7245546 22.5417621,33.6992126 21.8885595,33.6650917 C21.6012442,33.6536793 21.3127562,33.3090932 20.7134986,33.2909264 C20.3669611,33.3034452 19.9840695,33.3727933 19.6375321,33.4899456 C19.1021874,33.6764459 19.5190878,31.925101 20.4080062,31.2359288 C20.5663228,31.1199411 21.0594496,30.8219365 21.6170759,29.9929036 C21.8715551,29.6199029 21.9589225,29.6256091 22.0949575,30.1214101 C22.371132,30.8219365 22.4110043,31.1722287 22.5229986,31.9717406 Z M15.4573875,33.5945791 C15.1114365,33.4785331 14.7285448,33.4069142 14.3820074,33.3966663 C13.7827498,33.4137267 13.4942617,33.7583128 13.2057737,33.769667 C12.5537439,33.8049524 12.6305567,32.8303526 12.5713346,32.0774804 C12.6833289,31.2768623 12.724374,30.92657 13.0005485,30.2260436 C13.1359971,29.7301844 13.2239508,29.7245364 13.4760846,30.0987017 C14.0348836,30.92657 14.5285968,31.2245746 14.6874998,31.3416687 C15.5752454,32.0297345 15.9933185,33.7810795 15.4573875,33.5945791 Z M21.1362625,35.4505576 C20.7779979,35.136657 20.3130162,34.8034252 20.0139737,34.4645454 C19.8251665,34.254172 20.0966502,33.9562256 20.3769292,33.9391651 C20.7721343,33.9106923 21.1180854,33.9562256 21.5590265,34.0790259 C22.3594048,34.3008117 21.412437,34.8614191 21.1362625,35.4505576 Z M15.0815322,34.4463786 C14.6054097,34.9194712 14.3233716,35.3755033 14.0419199,35.4857848 C13.7886133,34.9433441 12.7706962,34.2427596 13.5640383,34.1847657 C14.0530607,34.1495385 14.253595,33.9800986 14.587819,33.9448131 C14.987715,33.8981735 15.428656,34.1028988 15.0815322,34.4463786 Z" id="CH"></path>
        </g>
    </g>
</svg>
